X:148
T:Italian Rant,An (p)1657.PLFD1.148
M:C
L:1/8
Q:1/2=90
S:Playford, Dancing Master,Supplement to 3rd Ed.,1657
F:http://www.izaak.unh.edu/nhltmd/indexes/dancingmaster/Dance/Play6214.htm
O:England;London
H:1657.
Z:John Chambers
N:This image contains 6 more bars (plus a half-bar "pickup") that's not seen elsewhere.
K:Gm
|:\
GABc d2d2 | e2dc d2d2 | c2cd B2Bc | AGAB G2G2 :: g2gg f2ff | =edef d2d2 |
d=efd _e2d2 | c3d B2B2 | BcdB c2A2 | ABcA B2G2 | GABc d2d2 | e2dc d2d2 | c2cd B2Bc | AGAB G2G2 || 
% Not in other versions:
F2 F2 | A>BcA d>=efd | fg=e>d d2f>g | a2a2 b2d2 | g>gfe d2B2 | cAdc BGga | gdg>^f g4 |]
